X: 13031
T: Finbarr Dwyer's
R: reel
M: 4/4
K: Amixolydian
|:A2Ae cAec|AEAe dBGA|BeeB Bdde|dBGB eBdB|
A2Ae cAec|AEAe dBGA|BeeB Bdef|1 gaba gedB:|2 gaba gede||
|:cAeA Aaae|geAg eaaA|EAce afge|deBd ecde|
cAeA Aaae|geAg eaag|fdfa gfgd|1 BddB eBde:|2 BddB eBdB||

